static/assets/items/graphite.svg

<svg xmlns="http://www.w3.org/2000/svg" viewBox="0 0 32 32"><path d="M0 .5V0h32v32H0V.5M22.5 28q.5 0 .875-.125T24 27.5l.5-.5.5-.5.5-.5.5-.5.5-.5.5-.5.5-.5q.25-.25.375-.625T28 22.5v-1-1-1-1-1-1-1-1-1-1-1-1-1q0-.5-.125-.875T27.5 8l-.5-.5-.5-.5-.5-.5-.5-.5-.5-.5-.5-.5-.5-.5q-.25-.25-.625-.375T22.5 4h-13q-.5 0-.875.125t-.5.5-.5.5Q7.25 5.25 7 5.5l-.5.5-.5.5-.5.5-.5.5-.5.5q-.25.25-.375.625T4 9.5v13q0 .5.125.875T4.5 24l.5.5.5.5.5.5.5.5.5.5.5.5.5.5q.25.25.625.375T9.5 28h13" fill="none"/><path d="M8.125 4.625q.125-.375.5-.5T9.5 4H12v1.5q0 .5.125.875T12.5 7l.5.5q.25.25.625.375t.75 0Q14.75 7.75 15 7.5l.5-.5q.25-.25.375-.625T16 5.5V4h6.5q.5 0 .875.125T24 4.5l.5.5.5.5.5.5.5.5.5.5.5.5.5.5q.25.25.375.625T28 9.5V16h-1.5q-.5 0-.875.125T25 16.5l-.5.5q-.25.25-.375.625t0 .75q.125.375.375.625l.5.5q.25.25.625.375T26.5 20H28v3-.75.25q0 .25-.0313.4688l-.0312.2187.0156-.1094.0157-.1093-.3594.1406Q27.25 23.25 27 23.5q-.25.25-.625.375T25.5 24h-1q-.5 0-.875-.125T23 23.5l-.5-.5-.5-.5-.5-.5-.5-.5-.5-.5-.5-.5-.5-.5-.5-.5-.5-.5-.5-.5-.5-.5-.5-.5-.5-.5-.5-.5-.5-.5-.5-.5-.5-.5-.5-.5-.5-.5-.5-.5-.5-.5-.5-.5-.5-.5-.5-.5-.5-.5-.5-.5-.5-.5-.5-.5-.5-.5q-.25-.25-.375-.625T8 7.5v-1q0-.5-.0313-1.0313l-.0312-.5312L7.875 5l-.0625.0625.125-.125q.125-.125.1875-.3125l.0625-.1875-.0938.2813L8 5l.125-.375M28 20.375v-.625 1-.375m0-4.25v-.875 1-.125M16.375 4h-.625 1-.375m-4.25 0h-.875 1-.125" fill="#95abd9"/><path d="M12 4.5V4h4v1.5q0 .5-.125.875T15.5 7l-.5.5q-.25.25-.625.375t-.75 0Q13.25 7.75 13 7.5l-.5-.5q-.25-.25-.375-.625T12 5.5v-1m4.125-.5h-.875 1-.125m-3.75 0h-.625 1-.375M7 5.5q.25-.25.625-.375L8 5l-.2813.0938-.2812.0937.1875-.0625q.1875-.0625.3125-.1875l.125-.125L8 4.875l-.0625.0625.0313.5313Q8 6 8 6.5v1q0 .5.125.875T8.5 9l.5.5.5.5.5.5.5.5.5.5.5.5.5.5.5.5.5.5.5.5.5.5.5.5.5.5.5.5.5.5.5.5.5.5.5.5.5.5.5.5.5.5.5.5.5.5.5.5.5.5.5.5.5.5.5.5.5.5q.25.25.625.375T24.5 24h1q.5 0 .875-.125T27 23.5q.25-.25.6094-.3906l.3593-.1407.0157-.1093L28 22.75l-.0313.2188q-.0312.2187-.0937.4062l-.0625.1875.0938-.2813L28 23l-.125.375q-.125.375-.375.625l-.5.5-.5.5-.5.5-.5.5-.5.5-.5.5-.5.5q-.25.25-.625.375T22.5 28h-13q-.5 0-.875-.125T8 27.5l-.5-.5-.5-.5-.5-.5-.5-.5-.5-.5-.5-.5-.5-.5q-.25-.25-.375-.625T4 22.5v-1-1-1-1-1-1-1-1-1-1-1-1-1q0-.5.125-.875T4.5 8l.5-.5.5-.5.5-.5.5-.5.5-.5M14.5 24q.5 0 .875-.125t.5-.5Q16 23 16 22.5t-.125-.875Q15.75 21.25 15.5 21l-.5-.5-.5-.5-.5-.5-.5-.5-.5-.5-.5-.5-.5-.5-.5-.5-.5-.5q-.25-.25-.625-.375T9.5 16q-.5 0-.875.125t-.5.5Q8 17 8 17.5v3q0 .5.125.875T8.5 22l.5.5.5.5.5.5q.25.25.625.375T11.5 24h3" fill="#6b77a1"/><path d="M8.125 16.625q.125-.375.5-.5T9.5 16q.5 0 .875.125T11 16.5l.5.5.5.5.5.5.5.5.5.5.5.5.5.5.5.5.5.5q.25.25.375.625T16 22.5q0 .5-.125.875t-.5.5Q15 24 14.5 24h-3q-.5 0-.875-.125T10 23.5l-.5-.5-.5-.5-.5-.5q-.25-.25-.375-.625T8 20.5v-1-1-1q0-.5.125-.875" fill="#95abd9"/><path d="M25 16.5q.25-.25.625-.375T26.5 16H28v4h-1.5q-.5 0-.875-.125T25 19.5l-.5-.5q-.25-.25-.375-.625t0-.75q.125-.375.375-.625l.5-.5m3 3.625v-.875 1-.125m0-3.75v-.625 1-.375" fill="#6b77a1"/></svg>

<?xml version="1.0" encoding="UTF-8" standalone="no"?>
<!-- Created with Inkscape (http://www.inkscape.org/) -->

<svg
   xmlns:dc="http://purl.org/dc/elements/1.1/"
   xmlns:cc="http://creativecommons.org/ns#"
   xmlns:rdf="http://www.w3.org/1999/02/22-rdf-syntax-ns#"
   xmlns:svg="http://www.w3.org/2000/svg"
   xmlns="http://www.w3.org/2000/svg"
   xmlns:sodipodi="http://sodipodi.sourceforge.net/DTD/sodipodi-0.dtd"
   xmlns:inkscape="http://www.inkscape.org/namespaces/inkscape"
   version="1.1"
   id="svg4700"
   width="32"
   height="32"
   viewBox="0 0 32 32"
   sodipodi:docname="graphite.svg"
   inkscape:version="0.92.5 (2060ec1f9f, 2020-04-08)">
  <metadata
     id="metadata4706">
    <rdf:RDF>
      <cc:Work
         rdf:about="">
        <dc:format>image/svg+xml</dc:format>
        <dc:type
           rdf:resource="http://purl.org/dc/dcmitype/StillImage" />
        <dc:title></dc:title>
      </cc:Work>
    </rdf:RDF>
  </metadata>
  <defs
     id="defs4704" />
  <sodipodi:namedview
     pagecolor="#ffffff"
     bordercolor="#666666"
     borderopacity="1"
     objecttolerance="10"
     gridtolerance="10"
     guidetolerance="10"
     inkscape:pageopacity="0"
     inkscape:pageshadow="2"
     inkscape:window-width="1366"
     inkscape:window-height="705"
     id="namedview4702"
     showgrid="false"
     inkscape:zoom="7.375"
     inkscape:cx="16"
     inkscape:cy="16"
     inkscape:window-x="-8"
     inkscape:window-y="-8"
     inkscape:window-maximized="1"
     inkscape:current-layer="svg4700" />
  <g
     id="g5265">
    <path
       style="fill:#000000;fill-opacity:0"
       d="M 0,0.5 V 0 H 0.5 1 1.5 2 2.5 3 3.5 4 4.5 5 5.5 6 6.5 7 7.5 8 8.5 9 9.5 10 10.5 11 11.5 12 12.5 13 13.5 14 14.5 15 15.5 16 16.5 17 17.5 18 18.5 19 19.5 20 20.5 21 21.5 22 22.5 23 23.5 24 24.5 25 25.5 26 26.5 27 27.5 28 28.5 29 29.5 30 30.5 31 31.5 32 V 0.5 1 1.5 2 2.5 3 3.5 4 4.5 5 5.5 6 6.5 7 7.5 8 8.5 9 9.5 10 10.5 11 11.5 12 12.5 13 13.5 14 14.5 15 15.5 16 16.5 17 17.5 18 18.5 19 19.5 20 20.5 21 21.5 22 22.5 23 23.5 24 24.5 25 25.5 26 26.5 27 27.5 28 28.5 29 29.5 30 30.5 31 31.5 32 H 31.5 31 30.5 30 29.5 29 28.5 28 27.5 27 26.5 26 25.5 25 24.5 24 23.5 23 22.5 22 21.5 21 20.5 20 19.5 19 18.5 18 17.5 17 16.5 16 15.5 15 14.5 14 13.5 13 12.5 12 11.5 11 10.5 10 9.5 9 8.5 8 7.5 7 6.5 6 5.5 5 4.5 4 3.5 3 2.5 2 1.5 1 0.5 0 V 31.5 31 30.5 30 29.5 29 28.5 28 27.5 27 26.5 26 25.5 25 24.5 24 23.5 23 22.5 22 21.5 21 20.5 20 19.5 19 18.5 18 17.5 17 16.5 16 15.5 15 14.5 14 13.5 13 12.5 12 11.5 11 10.5 10 9.5 9 8.5 8 7.5 7 6.5 6 5.5 5 4.5 4 3.5 3 2.5 2 1.5 1 0.5 M 22.5,28 Q 23,28 23.375,27.875 23.75,27.75 24,27.5 24.25,27.25 24.5,27 24.75,26.75 25,26.5 25.25,26.25 25.5,26 25.75,25.75 26,25.5 26.25,25.25 26.5,25 26.75,24.75 27,24.5 27.25,24.25 27.5,24 27.75,23.75 27.875,23.375 28,23 28,22.5 q 0,-0.5 0,-1 0,-0.5 0,-1 0,-0.5 0,-1 0,-0.5 0,-1 0,-0.5 0,-1 0,-0.5 0,-1 0,-0.5 0,-1 0,-0.5 0,-1 0,-0.5 0,-1 0,-0.5 0,-1 0,-0.5 0,-1 0,-0.5 0,-1 0,-0.5 0,-1 Q 28,9 27.875,8.625 27.75,8.25 27.5,8 27.25,7.75 27,7.5 26.75,7.25 26.5,7 26.25,6.75 26,6.5 25.75,6.25 25.5,6 25.25,5.75 25,5.5 24.75,5.25 24.5,5 24.25,4.75 24,4.5 23.75,4.25 23.375,4.125 23,4 22.5,4 22,4 21.5,4 21,4 20.5,4 20,4 19.5,4 19,4 18.5,4 18,4 17.5,4 17,4 16.5,4 16,4 15.5,4 15,4 14.5,4 14,4 13.5,4 13,4 12.5,4 12,4 11.5,4 11,4 10.5,4 10,4 9.5,4 9,4 8.625,4.125 8.25,4.25 8.125,4.625 8,5 7.625,5.125 7.25,5.25 7,5.5 6.75,5.75 6.5,6 6.25,6.25 6,6.5 5.75,6.75 5.5,7 5.25,7.25 5,7.5 4.75,7.75 4.5,8 4.25,8.25 4.125,8.625 4,9 4,9.5 q 0,0.5 0,1 0,0.5 0,1 0,0.5 0,1 0,0.5 0,1 0,0.5 0,1 0,0.5 0,1 0,0.5 0,1 0,0.5 0,1 0,0.5 0,1 0,0.5 0,1 0,0.5 0,1 0,0.5 0,1 0,0.5 0,1 Q 4,23 4.125,23.375 4.25,23.75 4.5,24 4.75,24.25 5,24.5 5.25,24.75 5.5,25 5.75,25.25 6,25.5 6.25,25.75 6.5,26 6.75,26.25 7,26.5 7.25,26.75 7.5,27 7.75,27.25 8,27.5 8.25,27.75 8.625,27.875 9,28 9.5,28 q 0.5,0 1,0 0.5,0 1,0 0.5,0 1,0 0.5,0 1,0 0.5,0 1,0 0.5,0 1,0 0.5,0 1,0 0.5,0 1,0 0.5,0 1,0 0.5,0 1,0 0.5,0 1,0 0.5,0 1,0 0.5,0 1,0"
       id="path5253"
       inkscape:connector-curvature="0" />
    <path
       style="fill:#95abd9;fill-opacity:1"
       d="M 8.125,4.625 Q 8.25,4.25 8.625,4.125 9,4 9.5,4 q 0.5,0 1,0 0.5,0 1,0 H 12 V 4.5 Q 12,5 12,5.5 12,6 12.125,6.375 12.25,6.75 12.5,7 12.75,7.25 13,7.5 13.25,7.75 13.625,7.875 14,8 14.375,7.875 14.75,7.75 15,7.5 15.25,7.25 15.5,7 15.75,6.75 15.875,6.375 16,6 16,5.5 16,5 16,4.5 V 4 h 0.5 q 0.5,0 1,0 0.5,0 1,0 0.5,0 1,0 0.5,0 1,0 0.5,0 1,0 0.5,0 1,0 Q 23,4 23.375,4.125 23.75,4.25 24,4.5 24.25,4.75 24.5,5 24.75,5.25 25,5.5 25.25,5.75 25.5,6 25.75,6.25 26,6.5 26.25,6.75 26.5,7 26.75,7.25 27,7.5 27.25,7.75 27.5,8 27.75,8.25 27.875,8.625 28,9 28,9.5 q 0,0.5 0,1 0,0.5 0,1 0,0.5 0,1 0,0.5 0,1 0,0.5 0,1 0,0.5 0,1 V 16 H 27.5 Q 27,16 26.5,16 26,16 25.625,16.125 25.25,16.25 25,16.5 24.75,16.75 24.5,17 24.25,17.25 24.125,17.625 24,18 24.125,18.375 24.25,18.75 24.5,19 q 0.25,0.25 0.5,0.5 0.25,0.25 0.625,0.375 Q 26,20 26.5,20 q 0.5,0 1,0 H 28 v 0.5 q 0,0.5 0,1 0,0.5 0,1 V 23 22.625 22.25 22.5 q 0,0.25 -0.03125,0.46875 l -0.03125,0.21875 0.01563,-0.109375 0.01563,-0.109375 -0.359375,0.140625 Q 27.25,23.25 27,23.5 26.75,23.75 26.375,23.875 26,24 25.5,24 25,24 24.5,24 24,24 23.625,23.875 23.25,23.75 23,23.5 22.75,23.25 22.5,23 22.25,22.75 22,22.5 21.75,22.25 21.5,22 21.25,21.75 21,21.5 20.75,21.25 20.5,21 20.25,20.75 20,20.5 19.75,20.25 19.5,20 19.25,19.75 19,19.5 18.75,19.25 18.5,19 18.25,18.75 18,18.5 17.75,18.25 17.5,18 17.25,17.75 17,17.5 16.75,17.25 16.5,17 16.25,16.75 16,16.5 15.75,16.25 15.5,16 15.25,15.75 15,15.5 14.75,15.25 14.5,15 14.25,14.75 14,14.5 13.75,14.25 13.5,14 13.25,13.75 13,13.5 12.75,13.25 12.5,13 12.25,12.75 12,12.5 11.75,12.25 11.5,12 11.25,11.75 11,11.5 10.75,11.25 10.5,11 10.25,10.75 10,10.5 9.75,10.25 9.5,10 9.25,9.75 9,9.5 8.75,9.25 8.5,9 8.25,8.75 8.125,8.375 8,8 8,7.5 8,7 8,6.5 8,6 7.96875,5.46875 L 7.9375,4.9375 7.875,5 7.8125,5.0625 7.9375,4.9375 Q 8.0625,4.8125 8.125,4.625 L 8.1875,4.4375 8.09375,4.71875 8,5 8.125,4.625 M 28,20.375 V 20 19.875 19.75 20 q 0,0.25 0,0.5 v 0.25 -0.375 m 0,-4.25 V 16 15.625 15.25 15.5 q 0,0.25 0,0.5 v 0.25 -0.125 M 16.375,4 H 16 15.875 15.75 16 q 0.25,0 0.5,0 h 0.25 -0.375 m -4.25,0 H 12 11.625 11.25 11.5 q 0.25,0 0.5,0 h 0.25 -0.125"
       id="path5255"
       inkscape:connector-curvature="0" />
    <path
       style="fill:#6b77a1;fill-opacity:1"
       d="M 12,4.5 V 4 h 0.5 q 0.5,0 1,0 0.5,0 1,0 0.5,0 1,0 H 16 V 4.5 Q 16,5 16,5.5 16,6 15.875,6.375 15.75,6.75 15.5,7 15.25,7.25 15,7.5 14.75,7.75 14.375,7.875 14,8 13.625,7.875 13.25,7.75 13,7.5 12.75,7.25 12.5,7 12.25,6.75 12.125,6.375 12,6 12,5.5 12,5 12,4.5 M 16.125,4 H 16 15.625 15.25 15.5 q 0.25,0 0.5,0 h 0.25 -0.125 m -3.75,0 H 12 11.875 11.75 12 q 0.25,0 0.5,0 h 0.25 -0.375"
       id="path5257"
       inkscape:connector-curvature="0" />
    <path
       style="fill:#6b77a1;fill-opacity:1"
       d="M 7,5.5 Q 7.25,5.25 7.625,5.125 L 8,5 7.71875,5.09375 7.4375,5.1875 7.625,5.125 Q 7.8125,5.0625 7.9375,4.9375 L 8.0625,4.8125 8,4.875 7.9375,4.9375 7.96875,5.46875 Q 8,6 8,6.5 8,7 8,7.5 8,8 8.125,8.375 8.25,8.75 8.5,9 8.75,9.25 9,9.5 9.25,9.75 9.5,10 q 0.25,0.25 0.5,0.5 0.25,0.25 0.5,0.5 0.25,0.25 0.5,0.5 0.25,0.25 0.5,0.5 0.25,0.25 0.5,0.5 0.25,0.25 0.5,0.5 0.25,0.25 0.5,0.5 0.25,0.25 0.5,0.5 0.25,0.25 0.5,0.5 0.25,0.25 0.5,0.5 0.25,0.25 0.5,0.5 0.25,0.25 0.5,0.5 0.25,0.25 0.5,0.5 0.25,0.25 0.5,0.5 0.25,0.25 0.5,0.5 0.25,0.25 0.5,0.5 0.25,0.25 0.5,0.5 0.25,0.25 0.5,0.5 0.25,0.25 0.5,0.5 0.25,0.25 0.5,0.5 0.25,0.25 0.5,0.5 0.25,0.25 0.5,0.5 0.25,0.25 0.5,0.5 0.25,0.25 0.5,0.5 0.25,0.25 0.5,0.5 0.25,0.25 0.5,0.5 0.25,0.25 0.5,0.5 0.25,0.25 0.625,0.375 Q 24,24 24.5,24 q 0.5,0 1,0 0.5,0 0.875,-0.125 Q 26.75,23.75 27,23.5 27.25,23.25 27.609375,23.109375 L 27.96875,22.96875 27.984375,22.859375 28,22.75 27.96875,22.96875 Q 27.9375,23.1875 27.875,23.375 L 27.8125,23.5625 27.90625,23.28125 28,23 27.875,23.375 Q 27.75,23.75 27.5,24 27.25,24.25 27,24.5 26.75,24.75 26.5,25 26.25,25.25 26,25.5 25.75,25.75 25.5,26 25.25,26.25 25,26.5 24.75,26.75 24.5,27 24.25,27.25 24,27.5 23.75,27.75 23.375,27.875 23,28 22.5,28 q -0.5,0 -1,0 -0.5,0 -1,0 -0.5,0 -1,0 -0.5,0 -1,0 -0.5,0 -1,0 -0.5,0 -1,0 -0.5,0 -1,0 -0.5,0 -1,0 -0.5,0 -1,0 -0.5,0 -1,0 -0.5,0 -1,0 -0.5,0 -1,0 -0.5,0 -1,0 Q 9,28 8.625,27.875 8.25,27.75 8,27.5 7.75,27.25 7.5,27 7.25,26.75 7,26.5 6.75,26.25 6.5,26 6.25,25.75 6,25.5 5.75,25.25 5.5,25 5.25,24.75 5,24.5 4.75,24.25 4.5,24 4.25,23.75 4.125,23.375 4,23 4,22.5 4,22 4,21.5 4,21 4,20.5 4,20 4,19.5 4,19 4,18.5 4,18 4,17.5 4,17 4,16.5 4,16 4,15.5 4,15 4,14.5 4,14 4,13.5 4,13 4,12.5 4,12 4,11.5 4,11 4,10.5 4,10 4,9.5 4,9 4.125,8.625 4.25,8.25 4.5,8 4.75,7.75 5,7.5 5.25,7.25 5.5,7 5.75,6.75 6,6.5 6.25,6.25 6.5,6 6.75,5.75 7,5.5 M 14.5,24 q 0.5,0 0.875,-0.125 0.375,-0.125 0.5,-0.5 Q 16,23 16,22.5 16,22 15.875,21.625 15.75,21.25 15.5,21 15.25,20.75 15,20.5 14.75,20.25 14.5,20 14.25,19.75 14,19.5 13.75,19.25 13.5,19 13.25,18.75 13,18.5 12.75,18.25 12.5,18 12.25,17.75 12,17.5 11.75,17.25 11.5,17 11.25,16.75 11,16.5 10.75,16.25 10.375,16.125 10,16 9.5,16 9,16 8.625,16.125 8.25,16.25 8.125,16.625 8,17 8,17.5 q 0,0.5 0,1 0,0.5 0,1 0,0.5 0,1 Q 8,21 8.125,21.375 8.25,21.75 8.5,22 q 0.25,0.25 0.5,0.5 0.25,0.25 0.5,0.5 0.25,0.25 0.5,0.5 0.25,0.25 0.625,0.375 Q 11,24 11.5,24 q 0.5,0 1,0 0.5,0 1,0 0.5,0 1,0"
       id="path5259"
       inkscape:connector-curvature="0" />
    <path
       style="fill:#95abd9;fill-opacity:1"
       d="M 8.125,16.625 Q 8.25,16.25 8.625,16.125 9,16 9.5,16 10,16 10.375,16.125 10.75,16.25 11,16.5 q 0.25,0.25 0.5,0.5 0.25,0.25 0.5,0.5 0.25,0.25 0.5,0.5 0.25,0.25 0.5,0.5 0.25,0.25 0.5,0.5 0.25,0.25 0.5,0.5 0.25,0.25 0.5,0.5 0.25,0.25 0.5,0.5 0.25,0.25 0.5,0.5 0.25,0.25 0.375,0.625 Q 16,22 16,22.5 q 0,0.5 -0.125,0.875 -0.125,0.375 -0.5,0.5 Q 15,24 14.5,24 q -0.5,0 -1,0 -0.5,0 -1,0 -0.5,0 -1,0 Q 11,24 10.625,23.875 10.25,23.75 10,23.5 9.75,23.25 9.5,23 9.25,22.75 9,22.5 8.75,22.25 8.5,22 8.25,21.75 8.125,21.375 8,21 8,20.5 8,20 8,19.5 8,19 8,18.5 8,18 8,17.5 8,17 8.125,16.625"
       id="path5261"
       inkscape:connector-curvature="0" />
    <path
       style="fill:#6b77a1;fill-opacity:1"
       d="M 25,16.5 Q 25.25,16.25 25.625,16.125 26,16 26.5,16 q 0.5,0 1,0 H 28 v 0.5 q 0,0.5 0,1 0,0.5 0,1 0,0.5 0,1 V 20 H 27.5 Q 27,20 26.5,20 26,20 25.625,19.875 25.25,19.75 25,19.5 24.75,19.25 24.5,19 24.25,18.75 24.125,18.375 24,18 24.125,17.625 24.25,17.25 24.5,17 24.75,16.75 25,16.5 m 3,3.625 V 20 19.625 19.25 19.5 q 0,0.25 0,0.5 v 0.25 -0.125 m 0,-3.75 V 16 15.875 15.75 16 q 0,0.25 0,0.5 v 0.25 -0.375"
       id="path5263"
       inkscape:connector-curvature="0" />
  </g>
</svg>
